!!!COM:	Josquin des Prez
!!!CDT:	~1450-1521/08/27
!!!OPR:	Missa Fortuna desperata
!!!ONM:	1
!!!OTL:	Kyrie
!!!AGN:	Mass; Kyrie
!!!SCT:	NJE 8.2
!!!SCA:	New Josquin Edition 8.2
!!!voices: 4
**kern	**kern	**kern	**kern
*staff4	*staff3	*staff2	*staff1
*Ivox	*Ivox	*Ivox	*Ivox
*I"Bassus	*I"Tenor	*I"Altus	*I"Superius
*I'B	*I'T	*I'A	*I'S
*>[A,B,C]	*>[A,B,C]	*>[A,B,C]	*>[A,B,C]
*>Kyrie1[A]	*>Kyrie1[A]	*>Kyrie1[A]	*>Kyrie1[A]
*>Christe[B]	*>Christe[B]	*>Christe[B]	*>Christe[B]
*>Kyrie2[C]	*>Kyrie2[C]	*>Kyrie2[C]	*>Kyrie2[C]
*clefF4	*clefGv2	*clefGv2	*clefG2
*k[]	*k[]	*k[]	*k[]
*>A	*>A	*>A	*>A
*M3/1	*M3/1	*M3/1	*M3/1
*met(O)	*met(O)	*met(O)	*met(O)
=1-	=1-	=1-	=1-
!!section: Kyrie I
!!!OMD: Kyrie I
0F	0.r	0F	0f
2D\	.	2F/	2f/
2C/	.	2G/	2e/
=2	=2	=2	=2
2.F\	0.r	1A	1c
4E\	.	.	.
0C	.	0G	1r
.	.	.	1g
=3	=3	=3	=3
2.c\	0.F	1F	0a
4B\	.	.	.
4A\	.	1r	.
4G\	.	.	.
2.A\	.	.	.
.	.	1c	1a
4G\	.	.	.
4F\	.	.	.
4E\	.	.	.
=4	=4	=4	=4
1D	1F	1d	1a
0E	0G	1B	0g
.	.	1c	.
=5	=5	=5	=5
!!linebreak:default
1.D	0.A	2d\	2.f/
.	.	1f	.
.	.	.	4g/
.	.	.	4a/
.	.	.	4b\
2C/	.	2e\	2cc\
2.F\	.	2.c\	2a/
.	.	.	[2cc\
4E\	.	4d\	.
=6	=6	=6	=6
2C/	0.G	4e\	4cc\]
.	.	4f\	4b\
2.E-\	.	1g	4g/
.	.	.	4a/
.	.	.	2.b-i\
4D\	.	.	.
2BB-i/	.	1f	.
.	.	.	4a/
1C	.	.	4g/
.	.	.	4f/
.	.	2e\	2g/
=7	=7	=7	=7
2r	0.F	2.f\	2a/
2D\	.	.	2f/
.	.	4e\	.
2BB-i/	.	4d\	2b-i\
.	.	4c\	.
2C/	.	1c	1a
1D	.	.	.
.	.	2B\	4g/
.	.	.	4f/
=8	=8	=8	=8
2C/	1r	2c\	2e/
1F	.	4A/	1a
.	.	4B\	.
.	0c	4c\	.
.	.	4d\	.
2E\	.	2e\	2g/
1A	.	4c\	1cc
.	.	4d\	.
.	.	4e\	.
.	.	4f\	.
=9	=9	=9	=9
!!linebreak:default
2G\	0.d	2g\	2b\
2F\	.	2a\	2a/
1G	.	2d\	1b
.	.	1g	.
1D	.	.	1a
.	.	2f#i\	.
=10	=10	=10	=10
0E-	1B-i	0g	2r
.	.	.	1.g
.	0c	.	.
2.E-i\	.	2.G/	1g
4D\	.	4A/	.
=11	=11	=11	=11
0BB-i	0.d	1.B-i	1f
.	.	.	2g/
.	.	2G/	2.b-i\
2.B-i\	.	1G	.
.	.	.	4a/
.	.	.	4g/
4A\	.	.	4f/
=12	=12	=12	=12
4G\	1B-i	1d	2.g/
4F\	.	.	.
1G	.	.	.
.	.	.	4f/
.	0B-i	1r	2.d/
4F\	.	.	.
4E\	.	.	4e/
2D\	.	1d	2f/
2G\	.	.	[2g/
=13	=13	=13	=13
!!pagebreak:default
2r	1c	1e	2g/]
2C/	.	.	2e/
2D\	1B-i	2d\	2f/
2E\	.	2G/	2g/
1F	1A	2A/	2r
.	.	[2c\	2c/
=14	=14	=14	=14
1D	1F	2c\]	2d/
.	.	2B\	2f/
0C	0G	[0cl	2e/
.	.	.	1f
.	.	.	2e/
=15	=15	=15	=15
0.Fl	0.Fl	0.c]	0.fl
!!LO:LB:i:g=z
=16||	=16||	=16||	=16||
*>B	*>B	*>B	*>B
!!section: Christe
!!!OMD: Christe
*M2/1	*M2/1	*M2/1	*M2/1
*met(C|)	*met(C)	*met(C|)	*met(C|)
*	*rscale:1/2	*	*
0r	0r	2.c\	[0cc
.	.	4d\	.
.	.	2e\	.
.	.	2f\	.
=17	=17-	=17	=17
!!linebreak:default
0r	0r	2e\	1cc]
.	.	2.f\	.
.	.	.	1a
.	.	4d\	.
.	.	[2d\	.
=18	=18	=18	=18
0r	0r	2d\]	1b
.	.	2.e\	.
.	.	.	2cc\
.	.	4c\	.
.	.	[2f\	[2dd\
=19	=19-	=19	=19
0r	0r	2f\]	2dd\]
.	.	2e\	2cc\
.	.	2f\	1a
.	.	2d\	.
=20	=20	=20	=20
0r	0r	4e\	1g
.	.	4d\	.
.	.	4c\	.
.	.	4B\	.
.	.	2A/	2a/
.	.	[2G/	[2b-i\
=21	=21-	=21	=21
1r	0r	4G/]	4b-\]
.	.	4F/	4a/
.	.	1f	4g/
.	.	.	4f/
1C	.	.	1g
.	.	2e\	.
=22	=22	=22	=22
!	!LO:N:vis=0	!	!
1D	[y0f	0f	0f
[1F	.	.	.
=23	=23-	=23	=23
!!linebreak:default
2F\]	0f]yy	0c	0r
4E\	.	.	.
4D\	.	.	.
1F	.	.	.
=24	=24	=24	=24
0BB-	0f	0d	[0f
=25	=25-	=25	=25
0B-	0d	1r	1f]
.	.	1G	1g
=26	=26	=26	=26
!	!LO:N:vis=0	!	!
[0A	[y0e	[0c	0a
=27	=27-	=27	=27
0A]	0e]yy	0c]	0cc
=28	=28	=28	=28
1G	0g	1d	0b
1E	.	1e	.
=29	=29-	=29	=29
!!pagebreak:default
0F	1f	0A	0a
.	1e	.	.
=30	=30	=30	=30
!	!LO:N:vis=0	!	!
0G	[y0d	0B	0g
=31	=31-	=31	=31
0D	0d]yy	0A	0f
=32	=32	=32	=32
0G	0e	0B	0g
=33	=33-	=33	=33
0F	0f	0A	0a
=34	=34	=34	=34
!	!LO:N:vis=0	!	!
[0E-	([y0g	0G	[0b-i
=35	=35-	=35	=35
!!linebreak:default
0E-_	0g_yy	[0e-	0b-_
=36	=36	=36	=36
0E-]	0g])	0e-]	0b-]
=37	=37-	=37	=37
0F	0f	0c	[0a
=38	=38	=38	=38
0D	0f	0d	0a]
=39	=39-	=39	=39
0G	1e	0B	[0g
.	1d	.	.
=40	=40	=40	=40
!	!LO:N:vis=0	!	!
0C	[y0e	0c	0g_
=41	=41-	=41	=41
!!linebreak:default
0G	0e]yy	0B	0g]
=42	=42	=42	=42
!	!LO:N:vis=0	!	!
0F	[y0f	0c	[0a
=43	=43-	=43	=43
0D	0f]yy	0d	1a]
.	.	.	1f
=44	=44	=44	=44
0E	0r	0B	0g
=45	=45-	=45	=45
0F	0f	0A	0a
=46	=46	=46	=46
0BB-i	0f	0d	0b-i
=47	=47-	=47	=47
!!pagebreak:default
1C	1e	1c	0a
[1D	[1d	2.A/	.
.	.	4G/	.
=48	=48	=48	=48
1D]	1d]	2A/	1f
.	.	2B-i\	.
1E	1c	1G	1g
=49	=49-	=49	=49
0F	0A	1F	1a
.	.	1c	[1f
=50	=50	=50	=50
!	!LO:N:vis=0	!	!
[0BB-i	[y0B-i	1d	1f]
.	.	1e	1e
=51	=51-	=51	=51
0BB-]	0B-]yy	0f	0d
=52	=52	=52	=52
*	*rscale:1	*	*
!	!breve	!	!
0Fl	0A	0fl	0cl
!!LO:LB:i:g=z
=53||	=53||	=53||	=53||
*>C	*>C	*>C	*>C
!!section: Kyrie II
!!!OMD: Kyrie II
!!linebreak:default
*M3/1	*M3/1	*M3/1	*M3/1
*met(O|)	*met(O|)	*met(O|)	*met(O|)
0A	0.c	1A	0.r
.	.	2.c\	.
.	.	4d\	.
1A	.	2.e\	.
.	.	4f\	.
=54	=54	=54	=54
1.G	0.d	4g\	0.r
.	.	4a\	.
.	.	2.b-\	.
.	.	4a\	.
2F\	.	1a	.
1B-i	.	.	.
.	.	2g\	.
=55	=55	=55	=55
1A	0.c	0a	1cc
0F	.	.	2a/
.	.	.	2.cc\
.	.	1f	.
.	.	.	4b\
.	.	.	2a/
=56	=56	=56	=56
1c	0e	2g\	1g
.	.	2.c\	.
2A\	.	.	2a/
.	.	4d\	.
2.c\	.	2e\	2g/
.	1r	2A/	2.cc\
4B\	.	.	.
2A\	.	2c\	.
.	.	.	4a/
=57	=57	=57	=57
!!linebreak:default
2G\	1e	2B\	2b\
1A	.	2A/	2.cc\
.	1f	1F	.
.	.	.	4b\
2F\	.	.	1a
1B-i	1d	1r	.
.	.	.	2g/
=58	=58	=58	=58
2.A\	0c	2r	2.cc\
.	.	1F	.
4G\	.	.	4b\
2F\	.	.	4a/
.	.	.	4g/
2E\	.	2G/	1g
1D	1d	2.A/	.
.	.	.	2f#i/
.	.	4B\	.
=59	=59	=59	=59
2r	1.e	2E/	1g
1C	.	2.c\	.
.	.	.	1r
.	.	4B\	.
2D\	2d\	1A	.
1E	2c\	.	1g
.	2B\	2G/	.
=60	=60	=60	=60
2AA/	0.c	1A	2e/
2.A\	.	.	2.cc\
.	.	1F	.
4G\	.	.	4b\
2F\	.	.	2a/
1E	.	2.G/	2g/
.	.	.	2e/
.	.	4A/	.
=61	=61	=61	=61
!!pagebreak:default
2.D\	0.d	2B-i\	2.f/
.	.	1A	.
4E\	.	.	4g/
2F\	.	.	2a/
2G\	.	2G/	2.d/
2.D\	.	2B-i\	.
.	.	.	4e/
.	.	[2A/	4f/
4E\	.	.	4g/
=62	=62	=62	=62
2F\	1d	2A/]	2a/
2.G\	.	2G/	1b
.	0B	2d\	.
4F\	.	.	.
2D\	.	2f\	1a
1E	.	2.e\	.
.	.	.	2g#i/
.	.	4d\	.
=63	=63	=63	=63
2r	0.A	4c\	1a
.	.	4B\	.
1F	.	2.A/	.
.	.	.	1r
.	.	4G/	.
2D\	.	1F	.
1C	.	.	1cc
.	.	2E/	.
=64	=64	=64	=64
1BB-i	0.B-i	2F/	1dd
.	.	1G	.
2E-i\	.	.	2g/
2D\	.	2F/	2dd\
2.G\	.	4G/	2g/
.	.	4A/	.
.	.	4B-i\	2dd\
4A\	.	4c\	.
=65	=65	=65	=65
!!linebreak:default
1B-	0.G	2d\	2r
.	.	1.G	2dd\
0E-	.	.	2cc\
.	.	.	1b-i
.	.	2.B-i\	.
.	.	.	4a/
.	.	4c\	4g/
=66	=66	=66	=66
1D	0.A	2d\	1f
.	.	2A/	.
2C/	.	2.c\	1r
2.F\	.	.	.
.	.	4B\	.
.	.	4A/	1cc
4G\	.	4G/	.
[2A\	.	2F/	.
=67	=67	=67	=67
2A\]	1B-i	2f\	1dd
2G\	.	2g\	.
2A\	1A	2e\	2cc\
2F\	.	2f\	2a/
2G\	[1d	4B-i\	2.b-i\
.	.	4c\	.
[2B-\	.	4d\	.
.	.	4e\	4a/
=68	=68	=68	=68
4B-\]	2d\]	2.f\	2f/
4A\	.	.	.
1A	2c\	.	2cc\
.	.	4e\	.
.	1B-i	2f\	2dd\
2G\	.	2g\	2b-i\
2A\	1A	2e\	2cc\
2F\	.	2f\	2a/
=69	=69	=69	=69
!!linebreak:default
2G\	0.G	2d\	4b-i\
.	.	.	4a/
2.E-\	.	2.e-\	4g/
.	.	.	4f/
.	.	.	2g/
4D\	.	4f\	.
2BB-i/	.	2d\	1f
1C	.	[1cl	.
.	.	.	2e/
=70	=70	=70	=70
!!*^	*	*	*
0.FF/l 0.F/l	0.Fl	0.c]	0.fl
!!*v	*v	*	*	*
==	==	==	==
*-	*-	*-	*-
!!!RDF**kern: l=long note in original notation
!!!RDF**kern: i=musica ficta
!!!ENC: Jesse Rodin; Victoria Chang 2011/04/13
!!!END: 2011/04/13/
!!!EED:	Jesse Rodin
!!!EEV:	2011/04/14/
!!attribution-level: 1 (secure)
!!!ONB:	Translated from MusicXML and edited on 2011/04/14/ by Craig Sapp
!!muse2ps: T^@{OPR}^u^@{ONM}{. }@{OTL}^C^@{COM}\n@{SCT}^i2I100v85,90,85,100c95Q16
